X: 18
T:Kerfunten Jig
M:6/8
L:1/8
Q:100
C:Hammy Hamilton
S:THSP
R:jig
K:D
DE|:"D"~F3 FED|FGA "G"GBd|"D"A2A BAF|"A"E2E EDE|
"D"~F3 FED|FGA "G"GBd|"D"A2A BAF|1 "A"EFE "D"D2E:|2 "A"EFE "D"D2A||:
"D"~d3 def|"G"~B3 BAF|"D"~d3 def|"Em"fed "A"e2f|
"D"~d3 def|"G"~B3 BAF|"D"AFA dAF|1 "A"EFE "D"D2A:|2 "A"EFE "D"D2E|]
